assets/icons/pytest.svg

<svg width="24" height="24" viewBox="0 0 24 24" fill="none" xmlns="http://www.w3.org/2000/svg">
<path d="M2.61522 0V0.8867H6.45512V0H2.61522ZM7.63672 0V0.8867H11.4785V0H7.63672ZM12.5937 0V0.8867H16.4355V0H12.5937ZM17.5293 0V0.8867H21.3711V0H17.5293ZM2.44732 1.8945C2.32443 1.89442 2.20273 1.91857 2.08919 1.96556C1.97564 2.01255 1.87247 2.08146 1.78557 2.16835C1.69868 2.25525 1.62977 2.35842 1.58278 2.47197C1.53579 2.58552 1.51164 2.70721 1.51172 2.8301C1.51172 3.3471 1.93022 3.7676 2.44732 3.7676H21.5527C22.0698 3.7676 22.4883 3.3472 22.4883 2.8301C22.4884 2.70721 22.4643 2.58552 22.4173 2.47197C22.3703 2.35842 22.3014 2.25525 22.2145 2.16835C22.1276 2.08146 22.0244 2.01255 21.9109 1.96556C21.7973 1.91857 21.6756 1.89442 21.5527 1.8945H2.44732ZM2.61532 4.7422V24H6.45502V4.7422H2.61532ZM7.63672 4.7422V20.543H11.4785V4.7422H7.63672ZM12.5937 4.7422V15.291H16.4434V4.7422H12.5937ZM17.5293 4.7422V11.2363H21.3711V4.7422H17.5293Z" fill="white"/>
</svg>

<svg role="img" viewBox="0 0 24 24" xmlns="http://www.w3.org/2000/svg"><title>Pytest</title><path d="M2.6152 0v.8867h3.8399V0zm5.0215 0v.8867h3.8418V0zm4.957 0v.8867h3.8418V0zm4.9356 0v.8867h3.8418V0zM2.4473 1.8945a.935.935 0 0 0-.9356.9356c0 .517.4185.9375.9356.9375h19.1054c.5171 0 .9356-.4204.9356-.9375a.935.935 0 0 0-.9356-.9356zm.168 2.8477V24H6.455V4.7422zm5.0214 0V20.543h3.8418V4.7422zm4.957 0V15.291h3.8497V4.7422zm4.9356 0v6.4941h3.8418V4.7422z"/></svg>
